X:1567
T:Doctor's Delight, The
O:england
C:J\"orgen S\"alde
R:reel
M:C|
K:Em
BE~E2 B,E~E2|GEEG FAdA|BE~E2 B,EGE|FGFE Dd^cd|
BE~E2 B,E~E2|GEEG FGAF|~G3A B=cBG|1 FGFE Dd^cd:|2 FGFE D3A||
|:Beed ^cdBA|Beeg fdfa|Beed ^cdBG|FGA=c BAGA|
Beed ^cdBA|Beeg fdfa|gabg fd~d2|FGA=c BAGA:|


